resources/haticons/SVG/quip.svg

<!-- Generated by IcoMoon.io -->
<svg version="1.1" xmlns="http://www.w3.org/2000/svg" width="24" height="24" viewBox="0 0 24 24">
<title>quip</title>
<path fill="#f27557" d="M22.154 22.154h-10.154c-0.012 0-0.026 0-0.041 0-2.902 0-5.518-1.229-7.354-3.195l-0.005-0.006c-1.94-2.063-2.91-4.763-2.732-7.603 0.315-5.091 4.39-9.168 9.482-9.484 0.22-0.014 0.44-0.020 0.657-0.020 0.009-0 0.020-0 0.030-0 2.681 0 5.116 1.049 6.919 2.758l-0.005-0.004c1.973 1.841 3.202 4.457 3.202 7.36 0 0.014-0 0.028-0 0.042v-0.002zM20.216 3.254c-2.438-2.291-5.626-3.44-8.98-3.23-6.018 0.375-10.838 5.195-11.212 11.213-0.207 3.353 0.94 6.543 3.231 8.98 2.197 2.327 5.301 3.777 8.744 3.783h11.078c0.51 0 0.923-0.413 0.923-0.922v-11.078c-0.007-3.444-1.457-6.548-3.778-8.74l-0.006-0.005zM16.154 15.231h-8.308c-0.51 0-0.923 0.413-0.923 0.923s0.413 0.923 0.923 0.923h8.308c0.51 0 0.923-0.413 0.923-0.923s-0.413-0.923-0.923-0.923v0zM7.846 8.77h8.308c0.51 0 0.924-0.413 0.924-0.924s-0.413-0.924-0.924-0.924v0h-8.308c-0.51 0-0.924 0.413-0.924 0.924s0.413 0.924 0.924 0.924v0zM5.077 11.078c-0.497 0.017-0.893 0.423-0.893 0.922s0.396 0.906 0.891 0.922l0.002 0h13.846c0.51 0 0.923-0.413 0.923-0.923s-0.413-0.923-0.923-0.923v0z"></path>
</svg>

<svg xmlns="http://www.w3.org/2000/svg" width="24" height="24"><path fill="#f27557" d="M22.154 22.154H11.959a10.033 10.033 0 0 1-7.354-3.195l-.005-.006C2.66 16.89 1.69 14.19 1.868 11.35c.315-5.091 4.39-9.168 9.482-9.484.22-.014.44-.02.657-.02h.03c2.681 0 5.116 1.049 6.919 2.758l-.005-.004a10.033 10.033 0 0 1 3.202 7.36v.042V12zm-1.938-18.9C17.778.963 14.59-.186 11.236.024 5.218.399.398 5.219.024 11.237c-.207 3.353.94 6.543 3.231 8.98A12.015 12.015 0 0 0 11.999 24h11.078c.51 0 .923-.413.923-.922V12a12.019 12.019 0 0 0-3.778-8.74l-.006-.005zm-4.062 11.977H7.846a.923.923 0 1 0 0 1.846h8.308a.923.923 0 1 0 0-1.846zM7.846 8.77h8.308a.924.924 0 1 0 0-1.848H7.846a.924.924 0 1 0 0 1.848zm-2.769 2.308a.923.923 0 0 0-.002 1.844h13.848a.923.923 0 1 0 0-1.846z"/></svg>
